svgs/sharp-thin/school-flag.svg

<svg xmlns="http://www.w3.org/2000/svg" viewBox="0 0 576 512"><!--! Font Awesome Pro 6.6.0 by @fontawesome - https://fontawesome.com License - https://fontawesome.com/license (Commercial License) Copyright 2024 Fonticons, Inc. --><path d="M400 16l0 48L296 64l0-32 0-16 104 0zM280 76.1L173.2 160 8 160l-8 0 0 8L0 504l0 8 8 0 216 0 16 0 96 0 16 0 216 0 8 0 0-8 0-336 0-8-8 0-165.2 0L300.9 80 400 80l16 0 0-16 0-48 0-16L400 0 296 0 280 0l0 16 0 16 0 32 0 12.1zM336 416l0 80-96 0 0-80c0-26.5 21.5-48 48-48s48 21.5 48 48zm224 80l-208 0 0-80c0-35.3-28.7-64-64-64s-64 28.7-64 64l0 80L16 496l0-320 160 0 2.8 0 2.2-1.7L288 90.2l107.1 84.1 2.2 1.7 2.8 0 160 0 0 320zM328 240a40 40 0 1 1 -80 0 40 40 0 1 1 80 0zm-40-56a56 56 0 1 0 0 112 56 56 0 1 0 0-112zM72 224l-8 0 0 8 0 80 0 8 8 0 80 0 8 0 0-8 0-80 0-8-8 0-80 0zm8 80l0-64 64 0 0 64-64 0zm336-80l0 8 0 80 0 8 8 0 80 0 8 0 0-8 0-80 0-8-8 0-80 0-8 0zm16 16l64 0 0 64-64 0 0-64zM72 352l-8 0 0 8 0 80 0 8 8 0 80 0 8 0 0-8 0-80 0-8-8 0-80 0zm8 80l0-64 64 0 0 64-64 0zm336-80l0 8 0 80 0 8 8 0 80 0 8 0 0-8 0-80 0-8-8 0-80 0-8 0zm16 16l64 0 0 64-64 0 0-64z"/></svg>

<svg xmlns="http://www.w3.org/2000/svg" viewBox="0 0 576 512"><!--! Font Awesome Pro 6.5.2 by @fontawesome - https://fontawesome.com License - https://fontawesome.com/license (Commercial License) Copyright 2024 Fonticons, Inc. --><path d="M400 16V64H296V32 16H400zM280 76.1L173.2 160H8 0v8V504v8H8 224h16 96 16H568h8v-8V168v-8h-8H402.8L300.9 80H400h16V64 16 0H400 296 280V16 32 64 76.1zM336 416v80H240V416c0-26.5 21.5-48 48-48s48 21.5 48 48zm224 80H352V416c0-35.3-28.7-64-64-64s-64 28.7-64 64v80H16V176H176h2.8l2.2-1.7L288 90.2l107.1 84.1 2.2 1.7H400 560V496zM328 240a40 40 0 1 1 -80 0 40 40 0 1 1 80 0zm-40-56a56 56 0 1 0 0 112 56 56 0 1 0 0-112zM72 224H64v8 80 8h8 80 8v-8V232v-8h-8H72zm8 80V240h64v64H80zm336-80v8 80 8h8 80 8v-8V232v-8h-8H424h-8zm16 16h64v64H432V240zM72 352H64v8 80 8h8 80 8v-8V360v-8h-8H72zm8 80V368h64v64H80zm336-80v8 80 8h8 80 8v-8V360v-8h-8H424h-8zm16 16h64v64H432V368z"/></svg>
